X: 1
T: Sean Ryan's Jig
T: the Castle Jig
T: the Lonesome Jig
C: Se\'an Ryan (1919-1985)
R: jig
%S: s:2 b:16(8+8)
S: Fiddle Hell Online 2021-11-04 Natalie Haas accompaniment workshop
S: https://tunearch.org/wiki/Se%C3%A1n_Ryan%27s_Jig_(1)
Z: 2021 John Chambers <jc:trillian.mit.edu>
M: 6/8
L: 1/8
K: Am
"^A"[|] B |: c2A BAG | AGE DB,G, | A,3 EGE |1,3 DEG AGE :|2,4 DB,G, A,2 :|
"^B" |: B |  cBA a3  | bag edB   | GBd g3  | GBd cBA |
       y4 |  cBc dcd | ede gab   | age dBG | EFG A2 :|
